usr/share/icons/biglinux-icons-material-dark/22/actions/view-financial-account-investment-security.svg

<svg version="1.1" viewBox="0 0 22 22" xmlns="http://www.w3.org/2000/svg">
    <style id="current-color-scheme" type="text/css">.ColorScheme-Text { color: #dedede; }.ColorScheme-PositiveText { color: #27ae60; }</style>
    <path class="ColorScheme-PositiveText" d="m18.292938 3.4238285-3.166014 3.1660157-2.126954-2.125-2e-3 0.00195-2e-3 -0.00195-4.5350635 4.5351562-3.4609065-4e-7v1h3.8750155l4.1230015-4.1230466 2.123046 2.1230469 0.0059-0.00391 0.0039 0.00391 3.869137-3.8691406z" fill="currentColor"/>
    <path class="ColorScheme-Text" d="m4 3v14h-1v1h1v1h1v-1h14v-1h-0.292969l-3.576172-3.576172-0.0039 0.0039-0.0059-0.0039-2.123047 2.123047-4.123012-4.123047h-3.8749969v-8.423828zm1 9.423828h3.4609375l4.5351565 4.535156 2e-3 -2e-3 2e-3 2e-3 2.126953-2.125 2.125 2.125 0.040922 0.041016h-12.292969z" fill="currentColor"/>
</svg>

<svg xmlns="http://www.w3.org/2000/svg" viewBox="0 0 22 22">
<style id="current-color-scheme" type="text/css">
.ColorScheme-Text{color:#dedede}.ColorScheme-PositiveText{color:#27ae60}
</style>
<path fill="currentColor" d="M18.293 3.424 15.127 6.59 13 4.465l-.002.002-.002-.002L8.461 9H5v1h3.875l4.123-4.123L15.121 8l.006-.004.004.004L19 4.13z" class="ColorScheme-PositiveText"/>
<path fill="currentColor" d="M4 3v14H3v1h1v1h1v-1h14v-1h-.293l-3.576-3.576-.004.004-.006-.004-2.123 2.123-4.123-4.123H5V3zm1 9.424h3.46l4.536 4.535.002-.002.002.002 2.127-2.125 2.125 2.125.041.041H5z" class="ColorScheme-Text"/>
</svg>
